X:11
T:En Toi, j'ai mis ma confiance - 719
C:Gocam
M:6/8
L:1/4
K:Cm
C/|"Dom"EE/ "Solm"D3//E//D/|"Dom"C3/C3/ |"Mib"E3/"Sib7"F B,/|"Mib"G3/-G G/ |
w:En|Toi j'ai mis ma con-|fian-ce| Dieu trs|Saint,*Toi|
"Lab"AA/ "Sib"B/B/A/|"Dom"GF/ E3/|"Fam"F3/ "Sib"DF/|"Sol"G3/- G/G/G/ |
w:seul est mon es-p-|ran_ce|et mon sou-|tien,*c'est pour-|
"Lab"c3/ "Sib"B/c/B/|"Mib"G3/- GG/|"Fam"FF/ "Sib"DF/|"Sol"GG/ G/G/G/ |
w:quoi je ne crains|rien,*j'ai|foi en Toi |Dieu trs saint, c'est pour-|
"Lab"c3/ "Sib"B/c/B/|"Dom"G3/- GG/|"Fam"FE/ "Sib"DB,/|"Dom"CC/ C3/ |]
w:quoi je ne crains|rien,*j'ai|foi en Toi |Dieu trs saint|
